X:1
T:Libya, 11.11.11 D
T:Libya, 11.11.11 D
T:D. T. Browne, 1899
T:Public Domain Courtesy of the Cyber Hymnal™
C:D. T. Browne, 1899
Z:Public Domain
Z:Courtesy of the Cyber Hymnal™
%%score ( 1 2 ) ( 3 4 )
L:1/8
Q:1/4=110
M:4/4
K:C
V:1 treble 
V:2 treble 
V:3 bass 
V:4 bass 
V:1
 [EG]2 [EG]2 [CE]2 [EG]2 | [Ec]4 [EG]4 | [DG]2 [B,D]2 [B,G]3 [B,F] | [CE]6 z2 | %4
 [EG]2 [EG]2 [CE]2 [EG]2 | [Ec]4 [EG]4 | [D^F]2 [FA]2 [FB]3 [FA] | G6 z2 | [DF]2 D2 [DB]2 [FA]2 | %9
 [FA]4 [EG]4 | [DF]2 D2 [DB]3 [FA] | [EG]6 z2 | [Ec]2 [GB]2 [Gd]2 [Gc]2 | %13
 ([GB]2 [FA]2) ([DF]2 [A,D]2) | C2 [CE]2 [CE]3 [B,D] | C6 z2 | [Ec]2 [FB]2 [Fd]2 [Ec]2 | %17
 [FB]4 [DF]4 | [DB]2 [DF]2 [FB]3 [FA] | ([FA]4 [EG]4) | [Ec]2 [GB]2 [Gd]2 [Gc]2 | %21
 ([GB]2 [FA]2) ([DF]2 [A,D]2) | C2 [CE]2 [CE]3 [B,D] | C6 z2 |] %24
V:2
 x8 | x8 | x8 | x8 | x8 | x8 | x8 | G6 x2 | x2 D2 x4 | x8 | x2 D2 x4 | x8 | x8 | x8 | C2 x6 | %15
 C6 x2 | x8 | x8 | x8 | x8 | x8 | x8 | C2 x6 | C6 x2 |] %24
V:3
 [C,C]2 [C,C]2 [C,G,]2 [C,C]2 | [C,G,]4 [C,C]4 | [G,B,]2 G,2 [G,D]3 [G,D] | [C,C]6 z2 | %4
 [C,C]2 [C,C]2 [C,G,]2 [C,C]2 | [C,G,]4 [C,C]4 | [D,C]2 [D,C]2 [D,D]3 [D,C] | [G,B,]6 z2 | %8
 [G,,B,]2 [B,,G,]2 [D,G,]2 [G,B,]2 | [C,C]4 [C,C]4 | [G,,B,]2 [B,,G,]2 [D,G,]3 [G,B,] | [C,C]6 z2 | %12
 [C,G,]2 [D,G,]2 [E,C]2 [E,C]2 | [F,C]4 (A,2 F,2) | [E,G,]2 [C,G,]2 [G,,G,]3 [G,,F,] | [C,E,]6 z2 | %16
 [C,G,]2 [D,G,]2 [B,,G,]2 [C,G,]2 | G,4 [G,B,]4 | [F,G,]2 [D,G,]2 G,3 [G,B,] | [C,C]8 | %20
 [C,G,]2 [D,G,]2 [E,C]2 [E,C]2 | [F,C]4 (A,2 F,2) | [E,G,]2 [C,G,]2 [G,,G,]3 [G,,F,] | %23
 [C,E,]6 z2 |] %24
V:4
 x8 | x8 | x2 G,2 x4 | x8 | x8 | x8 | x8 | x8 | x8 | x8 | x8 | x8 | x8 | x4 F,4 | x8 | x8 | x8 | %17
 G,4 x4 | x4 G,3 x | x8 | x8 | x4 F,4 | x8 | x8 |] %24

